img/secur.svg

<svg width="24" height="24" viewBox="0 0 24 24" fill="none" xmlns="http://www.w3.org/2000/svg">
<path fill-rule="evenodd" clip-rule="evenodd" d="M18.865 5.12377C19.302 5.27677 19.594 5.68877 19.594 6.15177V12.9248C19.594 14.8178 18.906 16.6248 17.691 18.0248C17.08 18.7298 16.307 19.2788 15.486 19.7228L11.928 21.6448L8.364 19.7218C7.542 19.2778 6.768 18.7298 6.156 18.0238C4.94 16.6238 4.25 14.8158 4.25 12.9208V6.15177C4.25 5.68877 4.542 5.27677 4.979 5.12377L11.561 2.81077C11.795 2.72877 12.05 2.72877 12.283 2.81077L18.865 5.12377Z" stroke="#2E2F30" stroke-width="1.5" stroke-linecap="round" stroke-linejoin="round"/>
<path opacity="0.4" d="M9.32251 11.9177L11.2145 13.8107L15.1125 9.91272" stroke="#2E2F30" stroke-width="1.5" stroke-linecap="round" stroke-linejoin="round"/>
</svg>

<svg width="24" height="24" fill="none" xmlns="http://www.w3.org/2000/svg"><path clip-rule="evenodd" d="M18.865 5.124c.437.153.729.565.729 1.028v6.773c0 1.893-.688 3.7-1.903 5.1-.611.705-1.384 1.254-2.205 1.698l-3.558 1.922-3.564-1.923c-.822-.444-1.596-.992-2.208-1.698A7.783 7.783 0 0 1 4.25 12.92V6.15c0-.462.292-.874.729-1.027l6.582-2.313a1.09 1.09 0 0 1 .722 0l6.582 2.313z" stroke="#2E2F30" stroke-width="1.5" stroke-linecap="round" stroke-linejoin="round"/><path opacity=".4" d="m9.323 11.918 1.891 1.893 3.899-3.898" stroke="#2E2F30" stroke-width="1.5" stroke-linecap="round" stroke-linejoin="round"/></svg>
